X: 1
T: Da Eye Wifie
M: 4/4
L: 1/8
R: hornpipe
K: Dmaj
(3A,B,C
|: D2 F>D E2 G>E | F>D D>E (3FFF E>D| B,>E E>D E>FG>A | B>A A>B A>g f{gf}e|
| f2 d>A B>A F>B | A>F d>B A>F E>D | E2 (3EEF A>F E>D |1 D>B, B,>A, D2 (3A,B,C :|2 D>B, B,>A, D2 (3efg||
|: f2 d>d c>d B>d | A>d (3Bcd f>d c>d | (3Bcd g>d (3ABd f>d | A>c e>d c>a g>e|
| f2 d>d c>d B>d | A>d c>d B{cB}A F>D | E2 (3EEF A>F E>D |1 D>B, B,>A, D2 (3efg :|2 D>B, B,>A, [D4D4]||
